packages/ffe-icons/icons/filled/md/offline_bolt.svg

<svg xmlns="http://www.w3.org/2000/svg" height="24" viewBox="0 -960 960 960" width="24"><path d="M480.067-100.001q-78.836 0-148.204-29.92-69.369-29.92-120.682-81.21-51.314-51.291-81.247-120.629-29.933-69.337-29.933-148.173t29.92-148.204q29.92-69.369 81.21-120.682 51.291-51.314 120.629-81.247 69.337-29.933 148.173-29.933t148.204 29.92q69.369 29.92 120.682 81.21 51.314 51.291 81.247 120.629 29.933 69.337 29.933 148.173t-29.92 148.204q-29.92 69.369-81.21 120.682-51.291 51.314-120.629 81.247-69.337 29.933-148.173 29.933Zm-14.066-330v146.232q0 13.307 12.5 16.038Q491-265 496.693-276.693l99.459-226.614q3.847-9.231-1.451-17.962-5.298-8.73-15.01-8.73h-79.692v-149.386q0-13.307-12.5-16.346-12.499-3.038-18.192 8.654L365.232-456.693q-3.846 9.846 1.077 18.269 4.923 8.423 14.769 8.423h84.923Z"/></svg>

<svg xmlns="http://www.w3.org/2000/svg" height="24" viewBox="0 -960 960 960" width="24"><path d="M480.07-100q-78.84 0-148.21-29.92t-120.68-81.21q-51.31-51.29-81.25-120.63Q100-401.1 100-479.93q0-78.84 29.92-148.21t81.21-120.68q51.29-51.31 120.63-81.25Q401.1-860 479.93-860q78.84 0 148.21 29.92t120.68 81.21q51.31 51.29 81.25 120.63Q860-558.9 860-480.07q0 78.84-29.92 148.21t-81.21 120.68q-51.29 51.31-120.63 81.25Q558.9-100 480.07-100ZM466-430v146.23q0 13.31 12.5 16.04 12.5 2.73 18.19-8.96l99.46-226.62q3.85-9.23-1.45-17.96T579.69-530H500v-149.38q0-13.31-12.5-16.35-12.5-3.04-18.19 8.65L365.23-456.69q-3.84 9.84 1.08 18.27 4.92 8.42 14.77 8.42H466Z"/></svg>
